X: 15708
T: Golden Keyboard, The
R: reel
M: 4/4
K: Edorian
E2EF G2GA|B2gB fBed|BGEF GBAG|FE/D/AD BDAD|
E2EF G2GA|B2gB fBed|d2dc dBAF|GF/E/AF GEE2:|
Beed/e/ Beed/e/|Beef edBc|dAAA/A/ fAAA/A/|
dcde dBAF|E2EF GFGA|B2gB fBeB|d2de dBAF|GBAF GEE2:|

